!!!ONB: MCCC : IJH0415_05 : Extracted Monophonic Melody
!!!COM: Haydn, Joseph
!!!OPR: String Quartet in C major
!!!OMV: 5
!!!SCT: Hob.III:6 ; Op.1 No.6
!!!ODT: 1757///
**kern
*thru
*k[]
*C:
*clefF
*M2/4
8c
=1
8e
8g
8cc
8ee
=2
4.gg
24aa
24gg
24ff
=3
8ee
8g
8cc
8ee
=4
4.gg
24aa
24gg
24ff
=5
8ee
8ccc
8ccc
8ccc
=6
8.dd
16ee
8ff
16ee
16dd
=7
8ee
8ccc
8ccc
8ccc
=8
8.dd
16ee
8ff
16ee
16dd
=9
8cc
8c
8e
8g
=10
4cc
8r
8ee
=11
8f#
8g
8a
8b
=12
8cc
8b
8r
8dd
=13
8f#
8g
8a
8b
=14
8cc
8b
8r
8dd
=15
2ee
=16
2ff#
=17
2gg
=18
4.aa
16bb
16ccc
=19
4bb
4ddd
=20
8ccc
16bb
16aa
8gg
16ff#
16ee
=21
4dd
4aa
=22
4gg
8bb
16bb
16ddd
=23
4bb
8gg
16gg
16bb
=24
4gg
8g
16g
16a
=25
8b
8ee
8cc
8dd
=26
4g
8r
8r
=27
2r
=28
8r
8ccc
4eee
=29
2r
=30
8r
8bb
8ddd
8g
=31
8cc
8g
8ee
8b
=32
8cc
8g
8ee
8b
=33
8cc
8g
8e
8c
=34
4g
4r
=35
2r
=36
4.r
8G
=37
8c
8e-
8g
8cc
=38
4cc
8b
8e-
=39
8g
8cc
8ee-
8gg
=40
8gg
8aa-
8r
8ff
=41
8ff
8gg
8r
8ee-
=42
8ee-
8ff
8r
8dd
=43
8dd
8ee-
8r
8f#
=44
8g
8f#
8g
8f#
=45
4g
8r
8c
=46
8e
8g
8cc
8ee
=47
4.gg
24aa
24gg
24ff
=48
8ee
8g
8cc
8ee
=49
4.gg
24aa
24gg
24ff
=50
8ee
8ccc
8ccc
8ccc
=51
8.dd
16ee
8ff
16ee
16dd
=52
8ee
8ccc
8ccc
8ccc
=53
8.dd
16ee
8ff
16ee
16dd
=54
8.ee
16ff
8gg
16ff
16ee
=55
8.aa
16gg
16ff
16ee
16dd
16cc
=56
8b
8g
8b
8dd
=57
4gg
8r
8gg
=58
8b
8cc
8dd
8ee
=59
8ff
8ee
8r
8gg
=60
8b
8cc
8dd
8ee
=61
8ff
8ee
8r
8gg
=62
2aa
=63
2bb
=64
4.ccc
16ddd
16ccc
=65
4ddd
4ff
=66
4ee
4gg
=67
8ff
16ee
16dd
8cc
16b
16a
=68
4g
4dd
=69
4cc
8ee
16ee
16gg
=70
4ee
8cc
16cc
16ee
=71
4cc
8c
16c
16d
=72
8e
8a
8g
8f#
=73
4g
8ee
16ee
16gg
=74
4ee
8cc
16cc
16ee
=75
4cc
8c
16c
16d
=76
8e
8a
8f
8g
=77
4c
4r
==
*-
